static/img/kroki/19755c83a3c7ade37152f83737512e78.svg

<?xml version="1.0" encoding="us-ascii" standalone="no"?><svg xmlns="http://www.w3.org/2000/svg" xmlns:xlink="http://www.w3.org/1999/xlink" contentStyleType="text/css" height="352px" preserveAspectRatio="none" style="width:659px;height:352px;" version="1.1" viewBox="0 0 659 352" width="659px" zoomAndPan="magnify"><defs/><g><!--class aws_backup_protected_resource--><g id="elem_aws_backup_protected_resource"><rect codeLine="23" fill="#3D176E" height="39.7891" id="aws_backup_protected_resource" rx="2.5" ry="2.5" style="stroke:#000D19;stroke-width:0.5;" width="311" x="7" y="7"/><ellipse cx="22" cy="26.8945" fill="#ADD1B2" rx="11" ry="11" style="stroke:#181818;stroke-width:1.0;"/><path d="M24.9688,32.5352 Q24.3906,32.832 23.75,32.9727 Q23.1094,33.1289 22.4063,33.1289 Q19.9063,33.1289 18.5781,31.4883 Q17.2656,29.832 17.2656,26.707 Q17.2656,23.582 18.5781,21.9258 Q19.9063,20.2695 22.4063,20.2695 Q23.1094,20.2695 23.75,20.4258 Q24.4063,20.582 24.9688,20.8789 L24.9688,23.5977 Q24.3438,23.0195 23.75,22.7539 Q23.1563,22.4727 22.5313,22.4727 Q21.1875,22.4727 20.5,23.5508 Q19.8125,24.6133 19.8125,26.707 Q19.8125,28.8008 20.5,29.8789 Q21.1875,30.9414 22.5313,30.9414 Q23.1563,30.9414 23.75,30.6758 Q24.3438,30.3945 24.9688,29.8164 L24.9688,32.5352 Z " fill="#000000"/><text fill="#D9B8FF" font-family="Helvetica" font-size="17" lengthAdjust="spacing" textLength="269" x="41" y="32.7798">aws_backup_protected_resource</text></g><!--class aws_dynamodb_table--><g id="elem_aws_dynamodb_table"><rect codeLine="26" fill="#3D176E" height="39.7891" id="aws_dynamodb_table" rx="2.5" ry="2.5" style="stroke:#000D19;stroke-width:0.5;" width="223" x="221" y="106.79"/><ellipse cx="236" cy="126.6845" fill="#ADD1B2" rx="11" ry="11" style="stroke:#181818;stroke-width:1.0;"/><path d="M238.9688,132.3252 Q238.3906,132.622 237.75,132.7627 Q237.1094,132.9189 236.4063,132.9189 Q233.9063,132.9189 232.5781,131.2783 Q231.2656,129.622 231.2656,126.497 Q231.2656,123.372 232.5781,121.7158 Q233.9063,120.0595 236.4063,120.0595 Q237.1094,120.0595 237.75,120.2158 Q238.4063,120.372 238.9688,120.6689 L238.9688,123.3877 Q238.3438,122.8095 237.75,122.5439 Q237.1563,122.2627 236.5313,122.2627 Q235.1875,122.2627 234.5,123.3408 Q233.8125,124.4033 233.8125,126.497 Q233.8125,128.5908 234.5,129.6689 Q235.1875,130.7314 236.5313,130.7314 Q237.1563,130.7314 237.75,130.4658 Q238.3438,130.1845 238.9688,129.6064 L238.9688,132.3252 Z " fill="#000000"/><text fill="#D9B8FF" font-family="Helvetica" font-size="17" lengthAdjust="spacing" textLength="181" x="255" y="132.5698">aws_dynamodb_table</text></g><!--class aws_kinesis_stream--><g id="elem_aws_kinesis_stream"><rect codeLine="29" fill="#3D176E" height="39.7891" id="aws_kinesis_stream" rx="2.5" ry="2.5" style="stroke:#000D19;stroke-width:0.5;" width="209" x="149" y="206.58"/><ellipse cx="164" cy="226.4745" fill="#ADD1B2" rx="11" ry="11" style="stroke:#181818;stroke-width:1.0;"/><path d="M166.9688,232.1152 Q166.3906,232.412 165.75,232.5527 Q165.1094,232.7089 164.4063,232.7089 Q161.9063,232.7089 160.5781,231.0683 Q159.2656,229.412 159.2656,226.287 Q159.2656,223.162 160.5781,221.5058 Q161.9063,219.8495 164.4063,219.8495 Q165.1094,219.8495 165.75,220.0058 Q166.4063,220.162 166.9688,220.4589 L166.9688,223.1777 Q166.3438,222.5995 165.75,222.3339 Q165.1563,222.0527 164.5313,222.0527 Q163.1875,222.0527 162.5,223.1308 Q161.8125,224.1933 161.8125,226.287 Q161.8125,228.3808 162.5,229.4589 Q163.1875,230.5214 164.5313,230.5214 Q165.1563,230.5214 165.75,230.2558 Q166.3438,229.9745 166.9688,229.3964 L166.9688,232.1152 Z " fill="#000000"/><text fill="#D9B8FF" font-family="Helvetica" font-size="17" lengthAdjust="spacing" textLength="167" x="183" y="232.3598">aws_kinesis_stream</text></g><!--class aws_kms_key--><g id="elem_aws_kms_key"><rect codeLine="32" fill="#3D176E" height="39.7891" id="aws_kms_key" rx="2.5" ry="2.5" style="stroke:#000D19;stroke-width:0.5;" width="158" x="253.5" y="306.37"/><ellipse cx="268.5" cy="326.2645" fill="#ADD1B2" rx="11" ry="11" style="stroke:#181818;stroke-width:1.0;"/><path d="M271.4688,331.9052 Q270.8906,332.202 270.25,332.3427 Q269.6094,332.4989 268.9063,332.4989 Q266.4063,332.4989 265.0781,330.8583 Q263.7656,329.202 263.7656,326.077 Q263.7656,322.952 265.0781,321.2958 Q266.4063,319.6395 268.9063,319.6395 Q269.6094,319.6395 270.25,319.7958 Q270.9063,319.952 271.4688,320.2489 L271.4688,322.9677 Q270.8438,322.3895 270.25,322.1239 Q269.6563,321.8427 269.0313,321.8427 Q267.6875,321.8427 267,322.9208 Q266.3125,323.9833 266.3125,326.077 Q266.3125,328.1708 267,329.2489 Q267.6875,330.3114 269.0313,330.3114 Q269.6563,330.3114 270.25,330.0458 Q270.8438,329.7645 271.4688,329.1864 L271.4688,331.9052 Z " fill="#000000"/><text fill="#D9B8FF" font-family="Helvetica" font-size="17" lengthAdjust="spacing" textLength="116" x="287.5" y="332.1498">aws_kms_key</text></g><!--class aws_ssm_resource_compliance--><g id="elem_aws_ssm_resource_compliance"><rect codeLine="35" fill="#3D176E" height="39.7891" id="aws_ssm_resource_compliance" rx="2.5" ry="2.5" style="stroke:#000D19;stroke-width:0.5;" width="300" x="352.5" y="7"/><ellipse cx="367.5" cy="26.8945" fill="#ADD1B2" rx="11" ry="11" style="stroke:#181818;stroke-width:1.0;"/><path d="M370.4688,32.5352 Q369.8906,32.832 369.25,32.9727 Q368.6094,33.1289 367.9063,33.1289 Q365.4063,33.1289 364.0781,31.4883 Q362.7656,29.832 362.7656,26.707 Q362.7656,23.582 364.0781,21.9258 Q365.4063,20.2695 367.9063,20.2695 Q368.6094,20.2695 369.25,20.4258 Q369.9063,20.582 370.4688,20.8789 L370.4688,23.5977 Q369.8438,23.0195 369.25,22.7539 Q368.6563,22.4727 368.0313,22.4727 Q366.6875,22.4727 366,23.5508 Q365.3125,24.6133 365.3125,26.707 Q365.3125,28.8008 366,29.8789 Q366.6875,30.9414 368.0313,30.9414 Q368.6563,30.9414 369.25,30.6758 Q369.8438,30.3945 370.4688,29.8164 L370.4688,32.5352 Z " fill="#000000"/><text fill="#D9B8FF" font-family="Helvetica" font-size="17" lengthAdjust="spacing" textLength="258" x="386.5" y="32.7798">aws_ssm_resource_compliance</text></g><!--link aws_backup_protected_resource to aws_dynamodb_table--><g id="link_aws_backup_protected_resource_aws_dynamodb_table"><path codeLine="38" d="M196.09,47.22 C225.89,64.36 263.9991,86.2883 293.7791,103.4183 " fill="none" id="aws_backup_protected_resource-to-aws_dynamodb_table" style="stroke:#1A83AF;stroke-width:2.0;"/><polygon fill="#1A83AF" points="298.98,106.41,293.173,98.4552,294.6459,103.9169,289.1841,105.3898,298.98,106.41" style="stroke:#1A83AF;stroke-width:2.0;"/></g><!--link aws_dynamodb_table to aws_kinesis_stream--><g id="link_aws_dynamodb_table_aws_kinesis_stream"><path codeLine="39" d="M316.89,147.01 C303.04,164.15 286.6894,184.3918 272.8494,201.5318 " fill="none" id="aws_dynamodb_table-to-aws_kinesis_stream" style="stroke:#1A83AF;stroke-width:2.0;"/><polygon fill="#1A83AF" points="269.08,206.2,277.8462,201.7107,272.2212,202.3099,271.622,196.6848,269.08,206.2" style="stroke:#1A83AF;stroke-width:2.0;"/></g><!--link aws_dynamodb_table to aws_kms_key--><g id="link_aws_dynamodb_table_aws_kms_key"><path codeLine="40" d="M346.59,146.96 C356.86,162.26 369.91,184.66 375.5,206.58 C379.87,223.72 379.87,229.23 375.5,246.37 C369.91,268.29 360.204,285.7082 349.934,301.0082 " fill="none" id="aws_dynamodb_table-to-aws_kms_key" style="stroke:#1A83AF;stroke-width:2.0;"/><polygon fill="#1A83AF" points="346.59,305.99,354.9271,300.7467,349.3766,301.8385,348.2848,296.2881,346.59,305.99" style="stroke:#1A83AF;stroke-width:2.0;"/></g><!--link aws_kinesis_stream to aws_kms_key--><g id="link_aws_kinesis_stream_aws_kms_key"><path codeLine="41" d="M269.11,246.8 C282.96,263.94 299.3106,284.1818 313.1506,301.3218 " fill="none" id="aws_kinesis_stream-to-aws_kms_key" style="stroke:#1A83AF;stroke-width:2.0;"/><polygon fill="#1A83AF" points="316.92,305.99,314.378,296.4748,313.7788,302.0999,308.1538,301.5007,316.92,305.99" style="stroke:#1A83AF;stroke-width:2.0;"/></g><!--link aws_ssm_resource_compliance to aws_dynamodb_table--><g id="link_aws_ssm_resource_compliance_aws_dynamodb_table"><path codeLine="42" d="M468.91,47.22 C439.11,64.36 401.0009,86.2883 371.2209,103.4183 " fill="none" id="aws_ssm_resource_compliance-to-aws_dynamodb_table" style="stroke:#1A83AF;stroke-width:2.0;"/><polygon fill="#1A83AF" points="366.02,106.41,375.8159,105.3898,370.3541,103.9169,371.827,98.4552,366.02,106.41" style="stroke:#1A83AF;stroke-width:2.0;"/></g><!--SRC=[ZP31Ji9048RlVOfDE9DGYG8Naqf2z4ACU3EccNQdiA6xsyni9TNuxXOHihIbUDZB_D_kVFzkb4I1kd2LqAWJ90vugqm115f4H7OtjxabCSWooCQJPhYmnbq5bg1HF6B-WKwbq2HUDohT6cGMDrxq0EbsJROqyl2y8p1SHsYSHyrpO8wS8vMK3ZqPEKkcMTOacuyEnZASt64BioIH_f3HQ2J3MHEvkggtzubOgKyKeVzfI-kmfTbQyKlrMku9Jx9Lz9XVT7m6APLPYrjlzd9m8eDqDbzjGDhTdiuWPtyDEoIqhYfmtcg5iwdC9ftmqoKuIFTV9s37SL8ZPH4NL3T97SgOa6r9AOgl8FZsG5aPq5OciOCaRwNrTcJ5CJl2sg6PwlfWrHmpwzEwEBMwo1MOu-P-kU7R88ocusZnFhplq0iwZ5jNpft_T-LG9EYetCjUQdgjnWy0]--></g></svg>

<svg xmlns="http://www.w3.org/2000/svg" width="659" height="352" viewBox="0 0 659 352"><rect width="311" height="39.789" x="7" y="7" fill="#3D176E" rx="2.5" ry="2.5" style="stroke:#000d19;stroke-width:.5"/><circle cx="22" cy="26.895" r="11" fill="#ADD1B2" style="stroke:#181818;stroke-width:1"/><path d="M24.969 32.535q-.578.297-1.219.438-.64.156-1.344.156-2.5 0-3.828-1.64-1.312-1.657-1.312-4.782t1.312-4.781q1.328-1.656 3.828-1.656.703 0 1.344.156.656.156 1.219.453v2.719q-.625-.578-1.219-.844-.594-.281-1.219-.281-1.343 0-2.031 1.078-.687 1.062-.687 3.156t.687 3.172q.688 1.062 2.031 1.062.625 0 1.219-.265.594-.281 1.219-.86z"/><text x="41" y="32.78" fill="#D9B8FF" font-family="Helvetica" font-size="17" textLength="269">aws_backup_protected_resource</text><rect width="223" height="39.789" x="221" y="106.79" fill="#3D176E" rx="2.5" ry="2.5" style="stroke:#000d19;stroke-width:.5"/><circle cx="236" cy="126.684" r="11" fill="#ADD1B2" style="stroke:#181818;stroke-width:1"/><path d="M238.969 132.325q-.578.297-1.219.438-.64.156-1.344.156-2.5 0-3.828-1.64-1.312-1.657-1.312-4.782t1.312-4.781q1.328-1.656 3.828-1.656.703 0 1.344.156.656.156 1.219.453v2.719q-.625-.579-1.219-.844-.594-.281-1.219-.281-1.344 0-2.031 1.078-.687 1.062-.687 3.156t.687 3.172q.688 1.062 2.031 1.062.625 0 1.219-.265.594-.281 1.219-.86z"/><text x="255" y="132.57" fill="#D9B8FF" font-family="Helvetica" font-size="17" textLength="181">aws_dynamodb_table</text><rect width="209" height="39.789" x="149" y="206.58" fill="#3D176E" rx="2.5" ry="2.5" style="stroke:#000d19;stroke-width:.5"/><circle cx="164" cy="226.475" r="11" fill="#ADD1B2" style="stroke:#181818;stroke-width:1"/><path d="M166.969 232.115q-.578.297-1.219.438-.64.156-1.344.156-2.5 0-3.828-1.64-1.312-1.657-1.312-4.782t1.312-4.781q1.328-1.656 3.828-1.656.703 0 1.344.156.656.156 1.219.453v2.719q-.625-.578-1.219-.844-.594-.281-1.219-.281-1.344 0-2.031 1.078-.687 1.062-.687 3.156t.687 3.172q.688 1.062 2.031 1.062.625 0 1.219-.265.594-.281 1.219-.86z"/><text x="183" y="232.36" fill="#D9B8FF" font-family="Helvetica" font-size="17" textLength="167">aws_kinesis_stream</text><rect width="158" height="39.789" x="253.5" y="306.37" fill="#3D176E" rx="2.5" ry="2.5" style="stroke:#000d19;stroke-width:.5"/><circle cx="268.5" cy="326.264" r="11" fill="#ADD1B2" style="stroke:#181818;stroke-width:1"/><path d="M271.469 331.905q-.578.297-1.219.438-.64.156-1.344.156-2.5 0-3.828-1.64-1.312-1.657-1.312-4.782t1.312-4.781q1.328-1.656 3.828-1.656.703 0 1.344.156.656.156 1.219.453v2.719q-.625-.579-1.219-.844-.594-.281-1.219-.281-1.344 0-2.031 1.078-.687 1.062-.687 3.156t.687 3.172q.688 1.062 2.031 1.062.625 0 1.219-.265.594-.281 1.219-.86z"/><text x="287.5" y="332.15" fill="#D9B8FF" font-family="Helvetica" font-size="17" textLength="116">aws_kms_key</text><rect width="300" height="39.789" x="352.5" y="7" fill="#3D176E" rx="2.5" ry="2.5" style="stroke:#000d19;stroke-width:.5"/><circle cx="367.5" cy="26.895" r="11" fill="#ADD1B2" style="stroke:#181818;stroke-width:1"/><path d="M370.469 32.535q-.578.297-1.219.438-.64.156-1.344.156-2.5 0-3.828-1.64-1.312-1.657-1.312-4.782t1.312-4.781q1.328-1.656 3.828-1.656.703 0 1.344.156.656.156 1.219.453v2.719q-.625-.578-1.219-.844-.594-.281-1.219-.281-1.344 0-2.031 1.078-.687 1.062-.687 3.156t.687 3.172q.688 1.062 2.031 1.062.625 0 1.219-.265.594-.281 1.219-.86z"/><text x="386.5" y="32.78" fill="#D9B8FF" font-family="Helvetica" font-size="17" textLength="258">aws_ssm_resource_compliance</text><path fill="none" d="M196.09 47.22c29.8 17.14 67.91 39.068 97.69 56.198" style="stroke:#1a83af;stroke-width:2"/><path fill="#1A83AF" d="m298.98 106.41-5.807-7.955 1.473 5.462-5.462 1.473z" style="stroke:#1a83af;stroke-width:2"/><path fill="none" d="M316.89 147.01c-13.85 17.14-30.2 37.382-44.04 54.522" style="stroke:#1a83af;stroke-width:2"/><path fill="#1A83AF" d="m269.08 206.2 8.766-4.49-5.625.6-.599-5.625z" style="stroke:#1a83af;stroke-width:2"/><path fill="none" d="M346.59 146.96c10.27 15.3 23.32 37.7 28.91 59.62 4.37 17.14 4.37 22.65 0 39.79-5.59 21.92-15.296 39.338-25.566 54.638" style="stroke:#1a83af;stroke-width:2"/><path fill="#1A83AF" d="m346.59 305.99 8.337-5.243-5.55 1.091-1.092-5.55z" style="stroke:#1a83af;stroke-width:2"/><path fill="none" d="M269.11 246.8c13.85 17.14 30.2 37.382 44.04 54.522" style="stroke:#1a83af;stroke-width:2"/><path fill="#1A83AF" d="m316.92 305.99-2.542-9.515-.6 5.625-5.624-.6z" style="stroke:#1a83af;stroke-width:2"/><path fill="none" d="M468.91 47.22c-29.8 17.14-67.91 39.068-97.69 56.198" style="stroke:#1a83af;stroke-width:2"/><path fill="#1A83AF" d="m366.02 106.41 9.796-1.02-5.462-1.473 1.473-5.462z" style="stroke:#1a83af;stroke-width:2"/></svg>
